Misc/folder.svg

<svg xmlns="http://www.w3.org/2000/svg" viewBox="0 0 1200 800" preserveAspectRatio="none" width="1200" height="800">
 <path d="M0,0H1200V800H0Z" style="fill: white;"></path>
 <g>
  <g transform="translate(120,80)">
   <path d="M0,0H960V640H0Z" style="fill: white; stroke: black; stroke-width: 1;"></path>
   <svg x="0" y="0" overflow="hidden" width="960" height="640" viewBox="0 0 960 640">
    <g>
     <path d="M9,604h4M11,600v8M13,572h6M16,566v12M18,567h4M20,560v14M22,532h6M25,524v16M27,532h4M29,524v17M31,522h6M34,514v17M36,514h4M38,505v18M40,497h6M43,487v20M45,487h4M47,477v19M49,492h6M52,481v21M54,480h4M56,469v21M58,464h6M61,453v22M63,459h4M65,448v22M67,472h4M69,462v21M71,465h6M74,454v22M76,433h4M78,421v23M80,442h6M83,431v23M85,451h4M87,439v23M89,448h6M92,436v24M94,437h4M96,425v24M98,432h6M101,420v25M103,411h4M105,399v24M107,391h6M110,379v25M112,406h4M114,394v25M116,371h6M119,358v26M121,369h4M123,356v26M125,355h4M127,342v26M129,333h6M132,320v26M134,296h4M136,283v27M138,232h6M141,218v28M143,149h4M145,134v30M147,79h6M150,63v31M152,46h4M154,30v32M156,78h6M159,63v31M161,163h4M163,148v30M165,238h6M168,224v29M170,252h4M172,237v29M174,297h6M177,283v29M179,328h4M181,315v27M183,343h6M186,329v28M188,343h4M190,329v28M192,343h4M194,329v28M196,346h6M199,332v28M201,341h4M203,327v28M205,350h6M208,336v28M210,361h4M212,347v28M214,335h6M217,321v29M219,357h4M221,343v29M223,359h6M226,344v29M228,348h4M230,333v29M232,366h6M235,351v29M237,368h4M239,354v28M241,342h6M244,328v29M246,351h4M248,336v29M250,367h6M253,353v29M255,358h4M257,344v29M259,358h4M261,343v29M263,347h6M266,333v29M268,374h4M270,360v29M272,385h6M275,370v29M277,383h4M279,368v29M281,363h6M284,349v29M286,337h4M288,323v29M290,358h6M293,343v29M295,339h4M297,324v30M299,352h6M302,337v30M304,332h4M306,317v30M308,362h6M311,347v30M313,354h4M315,339v30M317,347h4M319,332v30M321,358h6M324,343v30M326,327h4M328,312v30M330,338h6M333,322v31M335,344h4M337,329v31M339,353h6M342,337v31M344,336h4M346,321v30M348,350h6M351,334v31M353,362h4M355,347v30M357,363h6M360,348v30M362,325h4M364,309v31M366,338h6M369,323v31M371,327h4M373,312v31M375,331h6M378,316v31M380,321h4M382,305v31M384,286h4M386,270v32M388,310h6M391,294v32M393,320h4M395,305v31M397,354h6M400,339v31M402,330h4M404,315v31M406,334h6M409,319v31M411,323h4M413,307v32M415,310h6M418,294v32M420,293h4M422,277v32M424,299h6M427,283v32M429,303h4M431,287v32M433,301h6M436,285v32M438,308h4M440,292v32M442,291h6M445,275v32M447,298h4M449,282v32M451,309h4M453,293v32M455,314h6M458,298v32M460,303h4M462,287v32M464,326h6M467,310v32M469,288h4M471,271v33M473,311h6M476,295v32M478,331h4M480,315v32M482,313h6M485,297v32M487,302h4M489,286v32M491,279h6M494,263v32M496,279h4M498,263v33M500,274h6M503,258v33M505,297h4M507,281v33M509,303h4M511,286v33M513,271h6M516,254v33M518,287h4M520,271v33M522,321h6M525,304v33M527,291h4M529,274v33M531,296h6M534,280v33M536,301h4M538,285v33M540,277h6M543,261v33M545,296h4M547,280v33M549,326h6M552,310v33M554,317h4M556,300v33M558,296h6M561,279v33M563,292h4M565,275v33M567,319h6M570,302v33M572,313h4M574,297v33M576,293h4M578,277v33M580,320h6M583,303v33M585,311h4M587,294v33M589,307h6M592,290v34M594,308h4M596,291v34M598,294h6M601,277v34M603,335h4M605,318v34M607,321h6M610,305v33M612,316h4M614,299v34M616,336h6M619,319v34M621,350h4M623,333v33M625,344h6M628,327v33M630,336h4M632,319v33M634,336h6M637,319v34M639,321h4M641,304v34M643,354h4M645,337v33M647,316h6M650,300v33M652,335h4M654,318v34M656,334h6M659,317v34M661,338h4M663,321v34M665,361h6M668,344v33M670,340h4M672,323v34M674,315h6M677,298v34M679,351h4M681,335v33M683,369h6M686,352v33M688,346h4M690,329v34M692,369h6M695,353v33M697,334h4M699,317v34M701,373h4M703,357v33M705,340h6M708,323v34M710,351h4M712,335v33M714,364h6M717,347v33M719,379h4M721,362v33M723,367h6M726,350v34M728,373h4M730,357v33M732,361h6M735,345v33M737,350h4M739,334v33M741,382h6M744,365v34M746,348h4M748,331v34M750,362h6M753,345v34M755,332h4M757,315v34M759,390h6M762,373v34M764,354h4M766,338v33M768,377h4M770,360v34M772,367h6M775,351v33M777,364h4M779,347v34M781,352h6M784,335v34M786,372h4M788,355v34M790,371h6M793,354v33M795,362h4M797,345v34M799,375h6M802,358v34M804,389h4M806,372v34M808,354h6M811,337v34M813,417h4M815,400v33M817,384h6M820,367v34M822,388h4M824,371v34M826,371h6M829,354v33M831,383h4M833,366v34M835,388h4M837,372v33M839,379h6M842,362v34M844,417h4M846,400v34M848,383h6M851,366v34M853,399h4M855,382v34M857,419h6M860,403v33M862,389h4M864,372v34M866,371h6M869,354v34M871,373h4M873,356v34M875,392h6M878,375v34M880,387h4M882,370v34M884,379h6M887,362v34M889,399h4M891,382v34M893,375h4M895,358v34M897,398h6M900,381v34M902,378h4M904,361v34M906,365h6M909,348v34M911,388h4M913,371v34M915,404h6M918,387v34M920,379h4M922,362v34M924,372h6M927,355v34M929,411h4M931,394v34M933,377h6M936,360v34M938,382h4M940,365v34M942,394h6M945,377v34M947,386h4M949,369v34M951,409h6M954,392v34M956,355h4M958,337v35" style="stroke: #00009a; stroke-width: 1;"></path>
    </g>
    <g>
     <path d="M66.98,447.98C67.4,447.71,69.71,446.24,70.55,445.7S73.31,443.87,74.12,443.32S76.91,441.38,77.69,440.82S80.51,438.75,81.27,438.17S84.12,435.94,84.84,435.36S87.74,432.93,88.41,432.34S91.36,429.66,91.98,429.06S94.99,426.07,95.55,425.47S98.63,422.07,99.13,421.49S102.27,417.57,102.7,417S105.92,412.41,106.27,411.87S109.57,406.41,109.84,405.91S113.21,399.29,113.41,398.84S116.84,390.68,116.99,390.29S120.46,380.02,120.56,379.7S124.07,366.54,124.13,366.28S127.67,349.09,127.7,348.88S131.25,326.04,131.27,325.89S134.83,295.3,134.85,295.19S138.41,254.73,138.42,254.64S141.99,203.72,141.99,203.65S145.56,146.24,145.56,146.16S149.13,93.62,149.13,93.52S152.18,62.79,152.71,62.19S155.87,63.76,156.28,64.32S159.84,98.22,159.85,98.32S163.42,150.11,163.42,150.19S166.99,203.86,167,203.94S170.56,249.74,170.57,249.84S174.12,285.02,174.14,285.16S177.68,310.84,177.71,311.03S181.23,329.4,181.28,329.65S184.75,342.72,184.86,343.05S188.24,352.32,188.43,352.75S191.7,359.29,192,359.81S195.11,364.39,195.57,364.97S198.49,368.13,199.14,368.72S201.88,370.9,202.72,371.44S205.3,372.92,206.29,373.37S208.77,374.35,209.86,374.68S212.28,375.32,213.43,375.53S215.82,375.89,217,375.99S219.39,376.14,220.58,376.16S222.96,376.14,224.15,376.08S226.54,375.92,227.72,375.8S230.13,375.52,231.29,375.36S233.71,374.98,234.87,374.77S237.3,374.32,238.44,374.08S240.88,373.55,242.01,373.28S244.46,372.69,245.58,372.41S248.05,371.76,249.15,371.46S251.63,370.77,252.73,370.45S255.21,369.72,256.3,369.39S258.79,368.63,259.87,368.29S262.37,367.49,263.44,367.14S265.94,366.32,267.01,365.96S269.52,365.11,270.59,364.74S273.1,363.88,274.16,363.5S276.67,362.62,277.73,362.24S280.25,361.34,281.3,360.95S283.83,360.03,284.87,359.65S287.4,358.72,288.45,358.33S290.98,357.38,292.02,356.99S294.55,356.03,295.59,355.64S298.12,354.67,299.16,354.27S301.7,353.29,302.73,352.89S305.27,351.91,306.31,351.51S308.85,350.52,309.88,350.11S312.42,349.11,313.45,348.71S315.99,347.7,317.02,347.29S319.57,346.28,320.6,345.87S323.14,344.86,324.17,344.45S326.71,343.43,327.74,343.01S330.29,341.99,331.31,341.57S333.86,340.54,334.88,340.13S337.43,339.1,338.46,338.68S341.01,337.65,342.03,337.23S344.58,336.19,345.6,335.77S348.15,334.73,349.17,334.31S351.73,333.27,352.74,332.85S355.3,331.8,356.32,331.38S358.87,330.33,359.89,329.91S362.44,328.86,363.46,328.44S366.02,327.38,367.03,326.96S369.59,325.9,370.6,325.48S373.16,324.42,374.18,324S376.73,322.94,377.75,322.52S380.31,321.45,381.32,321.03S383.88,319.97,384.89,319.54S387.45,318.48,388.47,318.05S391.02,316.99,392.04,316.56S394.6,315.49,395.61,315.07S398.17,314,399.18,313.58S401.74,312.51,402.75,312.08S405.31,311.01,406.33,310.58S408.89,309.51,409.9,309.09S412.46,308.01,413.47,307.59S416.03,306.51,417.04,306.09S419.6,305.01,420.61,304.59S423.68,303.3,424.19,303.08" style="fill: none; stroke: red; stroke-width: 2;"></path>
    </g>
   </svg>
   <g>
    <g transform="translate(0,640)">
     <path d="M0,0h960M0,-12v12m22,-12v12m23,-12v12m22,-24v24m22,-12v12m23,-12v12m22,-12v12m22,-24v24m23,-12v12m22,-12v12m22,-12v12m23,-24v24m22,-12v12m22,-12v12m23,-12v12m22,-24v24m22,-12v12m23,-12v12m22,-12v12m22,-24v24m23,-12v12m22,-12v12m22,-12v12m22,-24v24m23,-12v12m22,-12v12m22,-12v12m23,-24v24m22,-12v12m22,-12v12m23,-12v12m22,-24v24m22,-12v12m23,-12v12m22,-12v12m22,-24v24m23,-12v12m22,-12v12m22,-12v12m23,-24v24m22,-12v12m22,-12v12m23,-12v12" style="stroke: black; stroke-width: 1;"></path>
     <g font-family="Arial" font-size="28" space="preserve" fill="black" text-anchor="middle">
      <text dy=".8em" transform="translate(67,6)">
       1
      </text>
      <text dy=".8em" transform="translate(156,6)">
       1.02
      </text>
      <text dy=".8em" transform="translate(246,6)">
       1.04
      </text>
      <text dy=".8em" transform="translate(335,6)">
       1.06
      </text>
      <text dy=".8em" transform="translate(424,6)">
       1.08
      </text>
      <text dy=".8em" transform="translate(513,6)">
       1.10
      </text>
      <text dy=".8em" transform="translate(603,6)">
       1.12
      </text>
      <text dy=".8em" transform="translate(692,6)">
       1.14
      </text>
      <text dy=".8em" transform="translate(781,6)">
       1.16
      </text>
      <text dy=".8em" transform="translate(871,6)">
       1.18
      </text>
     </g>
    </g>
    <g>
     <path d="M0,0v640M36,640h-36m18,-20h-18m18,-20h-18m18,-20h-18m18,-20h-18m36,-20h-36m18,-21h-18m18,-20h-18m18,-20h-18m18,-20h-18m36,-20h-36m18,-20h-18m18,-20h-18m18,-20h-18m18,-20h-18m36,-20h-36m18,-20h-18m18,-21h-18m18,-20h-18m18,-20h-18m36,-20h-36m18,-20h-18m18,-20h-18m18,-20h-18m18,-20h-18m36,-20h-36m18,-20h-18m18,-21h-18m18,-20h-18m18,-20h-18m36,-20h-36m18,-20h-18" style="stroke: black; stroke-width: 1;"></path>
     <g font-family="Arial" font-size="28" space="preserve" fill="black" text-anchor="end">
      <text dy=".4em" transform="translate(-4,640)">
       0
      </text>
      <text dy=".4em" transform="translate(-4,540)">
       500
      </text>
      <text dy=".4em" transform="translate(-4,439)">
       1000
      </text>
      <text dy=".4em" transform="translate(-4,339)">
       1500
      </text>
      <text dy=".4em" transform="translate(-4,238)">
       2000
      </text>
      <text dy=".4em" transform="translate(-4,138)">
       2500
      </text>
      <text dy=".4em" transform="translate(-4,37)">
       3000
      </text>
     </g>
    </g>
   </g>
  </g>
  <g transform="translate(120,4)" font-family="Arial" font-size="40" space="preserve">
   <text fill="black" text-anchor="middle" dy=".8em" transform="translate(480)">
    projection
   </text>
  </g>
  <g transform="translate(936,52)" font-family="Arial" font-size="20" space="preserve" fill="black">
   <path d="M0,0H240V128H0Z" style="fill: white; stroke: black; stroke-width: 1;"></path>
   <text text-anchor="middle" dy=".4em" transform="translate(120,16)">
    hSignal
   </text>
   <text text-anchor="start" dy=".4em" transform="translate(12,48)">
    Entries
   </text>
   <text text-anchor="end" dy=".4em" transform="translate(228,48)">
    73245.49
   </text>
   <text text-anchor="start" dy=".4em" transform="translate(12,80)">
    Mean
   </text>
   <text text-anchor="end" dy=".4em" transform="translate(228,80)">
    1.095
   </text>
   <text text-anchor="start" dy=".4em" transform="translate(12,112)">
    Std Dev
   </text>
   <text text-anchor="end" dy=".4em" transform="translate(228,112)">
    0.05745
   </text>
   <path d="M0,32h240" style="stroke: black; stroke-width: 1;"></path>
  </g>
 </g>
</svg>

<svg xmlns="http://www.w3.org/2000/svg" viewBox="0 0 1200 800" preserveAspectRatio="none" width="1200" height="800">
 <path d="M0,0H1200V800H0Z" style="fill: white;"></path>
 <g>
  <g transform="translate(120,80)">
   <path d="M0,0H960V640H0Z" style="fill: white; stroke: black; stroke-width: 1;"></path>
   <svg x="0" y="0" overflow="hidden" width="960" height="640" viewBox="0 0 960 640">
    <g>
     <path d="M9,604h4M11,600v8M13,572h6M16,566v12M18,567h4M20,560v14M22,532h6M25,524v16M27,532h4M29,524v17M31,522h6M34,514v17M36,514h4M38,505v18M40,497h6M43,487v20M45,487h4M47,477v19M49,492h6M52,481v21M54,480h4M56,469v21M58,464h6M61,453v22M63,459h4M65,448v22M67,472h4M69,462v21M71,465h6M74,454v22M76,433h4M78,421v23M80,442h6M83,431v23M85,451h4M87,439v23M89,448h6M92,436v24M94,437h4M96,425v24M98,432h6M101,420v25M103,411h4M105,399v24M107,391h6M110,379v25M112,406h4M114,394v25M116,371h6M119,358v26M121,369h4M123,356v26M125,355h4M127,342v26M129,333h6M132,320v26M134,296h4M136,283v27M138,232h6M141,218v28M143,149h4M145,134v30M147,79h6M150,63v31M152,46h4M154,30v32M156,78h6M159,63v31M161,163h4M163,148v30M165,238h6M168,224v29M170,252h4M172,237v29M174,297h6M177,283v29M179,328h4M181,315v27M183,343h6M186,329v28M188,343h4M190,329v28M192,343h4M194,329v28M196,346h6M199,332v28M201,341h4M203,327v28M205,350h6M208,336v28M210,361h4M212,347v28M214,335h6M217,321v29M219,357h4M221,343v29M223,359h6M226,344v29M228,348h4M230,333v29M232,366h6M235,351v29M237,368h4M239,354v28M241,342h6M244,328v29M246,351h4M248,336v29M250,367h6M253,353v29M255,358h4M257,344v29M259,358h4M261,343v29M263,347h6M266,333v29M268,374h4M270,360v29M272,385h6M275,370v29M277,383h4M279,368v29M281,363h6M284,349v29M286,337h4M288,323v29M290,358h6M293,343v29M295,339h4M297,324v30M299,352h6M302,337v30M304,332h4M306,317v30M308,362h6M311,347v30M313,354h4M315,339v30M317,347h4M319,332v30M321,358h6M324,343v30M326,327h4M328,312v30M330,338h6M333,322v31M335,344h4M337,329v31M339,353h6M342,337v31M344,336h4M346,321v30M348,350h6M351,334v31M353,362h4M355,347v30M357,363h6M360,348v30M362,325h4M364,309v31M366,338h6M369,323v31M371,327h4M373,312v31M375,331h6M378,316v31M380,321h4M382,305v31M384,286h4M386,270v32M388,310h6M391,294v32M393,320h4M395,305v31M397,354h6M400,339v31M402,330h4M404,315v31M406,334h6M409,319v31M411,323h4M413,307v32M415,310h6M418,294v32M420,293h4M422,277v32M424,299h6M427,283v32M429,303h4M431,287v32M433,301h6M436,285v32M438,308h4M440,292v32M442,291h6M445,275v32M447,298h4M449,282v32M451,309h4M453,293v32M455,314h6M458,298v32M460,303h4M462,287v32M464,326h6M467,310v32M469,288h4M471,271v33M473,311h6M476,295v32M478,331h4M480,315v32M482,313h6M485,297v32M487,302h4M489,286v32M491,279h6M494,263v32M496,279h4M498,263v33M500,274h6M503,258v33M505,297h4M507,281v33M509,303h4M511,286v33M513,271h6M516,254v33M518,287h4M520,271v33M522,321h6M525,304v33M527,291h4M529,274v33M531,296h6M534,280v33M536,301h4M538,285v33M540,277h6M543,261v33M545,296h4M547,280v33M549,326h6M552,310v33M554,317h4M556,300v33M558,296h6M561,279v33M563,292h4M565,275v33M567,319h6M570,302v33M572,313h4M574,297v33M576,293h4M578,277v33M580,320h6M583,303v33M585,311h4M587,294v33M589,307h6M592,290v34M594,308h4M596,291v34M598,294h6M601,277v34M603,335h4M605,318v34M607,321h6M610,305v33M612,316h4M614,299v34M616,336h6M619,319v34M621,350h4M623,333v33M625,344h6M628,327v33M630,336h4M632,319v33M634,336h6M637,319v34M639,321h4M641,304v34M643,354h4M645,337v33M647,316h6M650,300v33M652,335h4M654,318v34M656,334h6M659,317v34M661,338h4M663,321v34M665,361h6M668,344v33M670,340h4M672,323v34M674,315h6M677,298v34M679,351h4M681,335v33M683,369h6M686,352v33M688,346h4M690,329v34M692,369h6M695,353v33M697,334h4M699,317v34M701,373h4M703,357v33M705,340h6M708,323v34M710,351h4M712,335v33M714,364h6M717,347v33M719,379h4M721,362v33M723,367h6M726,350v34M728,373h4M730,357v33M732,361h6M735,345v33M737,350h4M739,334v33M741,382h6M744,365v34M746,348h4M748,331v34M750,362h6M753,345v34M755,332h4M757,315v34M759,390h6M762,373v34M764,354h4M766,338v33M768,377h4M770,360v34M772,367h6M775,351v33M777,364h4M779,347v34M781,352h6M784,335v34M786,372h4M788,355v34M790,371h6M793,354v33M795,362h4M797,345v34M799,375h6M802,358v34M804,389h4M806,372v34M808,354h6M811,337v34M813,417h4M815,400v33M817,384h6M820,367v34M822,388h4M824,371v34M826,371h6M829,354v33M831,383h4M833,366v34M835,388h4M837,372v33M839,379h6M842,362v34M844,417h4M846,400v34M848,383h6M851,366v34M853,399h4M855,382v34M857,419h6M860,403v33M862,389h4M864,372v34M866,371h6M869,354v34M871,373h4M873,356v34M875,392h6M878,375v34M880,387h4M882,370v34M884,379h6M887,362v34M889,399h4M891,382v34M893,375h4M895,358v34M897,398h6M900,381v34M902,378h4M904,361v34M906,365h6M909,348v34M911,388h4M913,371v34M915,404h6M918,387v34M920,379h4M922,362v34M924,372h6M927,355v34M929,411h4M931,394v34M933,377h6M936,360v34M938,382h4M940,365v34M942,394h6M945,377v34M947,386h4M949,369v34M951,409h6M954,392v34M956,355h4M958,337v35" style="stroke: #00009a; stroke-width: 1;"></path>
    </g>
    <g>
     <path d="M66.98,447.98C67.4,447.71,69.71,446.24,70.55,445.7S73.31,443.87,74.12,443.32S76.91,441.38,77.69,440.82S80.51,438.75,81.27,438.17S84.12,435.94,84.84,435.36S87.74,432.93,88.41,432.34S91.36,429.66,91.98,429.06S94.99,426.07,95.55,425.47S98.63,422.07,99.13,421.49S102.27,417.57,102.7,417S105.92,412.41,106.27,411.87S109.57,406.41,109.84,405.91S113.21,399.29,113.41,398.84S116.84,390.68,116.99,390.29S120.46,380.02,120.56,379.7S124.07,366.54,124.13,366.28S127.67,349.09,127.7,348.88S131.25,326.04,131.27,325.89S134.83,295.3,134.85,295.19S138.41,254.73,138.42,254.64S141.99,203.72,141.99,203.65S145.56,146.24,145.56,146.16S149.13,93.62,149.13,93.52S152.18,62.79,152.71,62.19S155.87,63.76,156.28,64.32S159.84,98.22,159.85,98.32S163.42,150.11,163.42,150.19S166.99,203.86,167,203.94S170.56,249.74,170.57,249.84S174.12,285.02,174.14,285.16S177.68,310.84,177.71,311.03S181.23,329.4,181.28,329.65S184.75,342.72,184.86,343.05S188.24,352.32,188.43,352.75S191.7,359.29,192,359.81S195.11,364.39,195.57,364.97S198.49,368.13,199.14,368.72S201.88,370.9,202.72,371.44S205.3,372.92,206.29,373.37S208.77,374.35,209.86,374.68S212.28,375.32,213.43,375.53S215.82,375.89,217,375.99S219.39,376.14,220.58,376.16S222.96,376.14,224.15,376.08S226.54,375.92,227.72,375.8S230.13,375.52,231.29,375.36S233.71,374.98,234.87,374.77S237.3,374.32,238.44,374.08S240.88,373.55,242.01,373.28S244.46,372.69,245.58,372.41S248.05,371.76,249.15,371.46S251.63,370.77,252.73,370.45S255.21,369.72,256.3,369.39S258.79,368.63,259.87,368.29S262.37,367.49,263.44,367.14S265.94,366.32,267.01,365.96S269.52,365.11,270.59,364.74S273.1,363.88,274.16,363.5S276.67,362.62,277.73,362.24S280.25,361.34,281.3,360.95S283.83,360.03,284.87,359.65S287.4,358.72,288.45,358.33S290.98,357.38,292.02,356.99S294.55,356.03,295.59,355.64S298.12,354.67,299.16,354.27S301.7,353.29,302.73,352.89S305.27,351.91,306.31,351.51S308.85,350.52,309.88,350.11S312.42,349.11,313.45,348.71S315.99,347.7,317.02,347.29S319.57,346.28,320.6,345.87S323.14,344.86,324.17,344.45S326.71,343.43,327.74,343.01S330.29,341.99,331.31,341.57S333.86,340.54,334.88,340.13S337.43,339.1,338.46,338.68S341.01,337.65,342.03,337.23S344.58,336.19,345.6,335.77S348.15,334.73,349.17,334.31S351.73,333.27,352.74,332.85S355.3,331.8,356.32,331.38S358.87,330.33,359.89,329.91S362.44,328.86,363.46,328.44S366.02,327.38,367.03,326.96S369.59,325.9,370.6,325.48S373.16,324.42,374.18,324S376.73,322.94,377.75,322.52S380.31,321.45,381.32,321.03S383.88,319.97,384.89,319.54S387.45,318.48,388.47,318.05S391.02,316.99,392.04,316.56S394.6,315.49,395.61,315.07S398.17,314,399.18,313.58S401.74,312.51,402.75,312.08S405.31,311.01,406.33,310.58S408.89,309.51,409.9,309.09S412.46,308.01,413.47,307.59S416.03,306.51,417.04,306.09S419.6,305.01,420.61,304.59S423.68,303.3,424.19,303.08" style="fill: none; stroke: red; stroke-width: 2;"></path>
    </g>
   </svg>
   <g>
    <g transform="translate(0,640)">
     <path d="M0,0h960M0,-12V0M22,-12V0M45,-12V0M67,-24V0M89,-12V0M112,-12V0M134,-12V0M156,-24V0M179,-12V0M201,-12V0M223,-12V0M246,-24V0M268,-12V0M290,-12V0M313,-12V0M335,-24V0M357,-12V0M380,-12V0M402,-12V0M424,-24V0M447,-12V0M469,-12V0M491,-12V0M513,-24V0M536,-12V0M558,-12V0M580,-12V0M603,-24V0M625,-12V0M647,-12V0M670,-12V0M692,-24V0M714,-12V0M737,-12V0M759,-12V0M781,-24V0M804,-12V0M826,-12V0M848,-12V0M871,-24V0M893,-12V0M915,-12V0M938,-12V0" style="stroke: black; stroke-width: 1;"></path>
     <g font-family="Arial" font-size="28" space="preserve" fill="black" text-anchor="middle">
      <text dy=".8em" transform="translate(67,6)">
       1
      </text>
      <text dy=".8em" transform="translate(156,6)">
       1.02
      </text>
      <text dy=".8em" transform="translate(246,6)">
       1.04
      </text>
      <text dy=".8em" transform="translate(335,6)">
       1.06
      </text>
      <text dy=".8em" transform="translate(424,6)">
       1.08
      </text>
      <text dy=".8em" transform="translate(513,6)">
       1.10
      </text>
      <text dy=".8em" transform="translate(603,6)">
       1.12
      </text>
      <text dy=".8em" transform="translate(692,6)">
       1.14
      </text>
      <text dy=".8em" transform="translate(781,6)">
       1.16
      </text>
      <text dy=".8em" transform="translate(871,6)">
       1.18
      </text>
     </g>
    </g>
    <g>
     <path d="M0,0v640M36,640H0M18,620H0M18,600H0M18,580H0M18,560H0M36,540H0M18,519H0M18,499H0M18,479H0M18,459H0M36,439H0M18,419H0M18,399H0M18,379H0M18,359H0M36,339H0M18,319H0M18,298H0M18,278H0M18,258H0M36,238H0M18,218H0M18,198H0M18,178H0M18,158H0M36,138H0M18,118H0M18,97H0M18,77H0M18,57H0M36,37H0M18,17H0" style="stroke: black; stroke-width: 1;"></path>
     <g font-family="Arial" font-size="28" space="preserve" fill="black" text-anchor="end">
      <text dy=".4em" transform="translate(-4,640)">
       0
      </text>
      <text dy=".4em" transform="translate(-4,540)">
       500
      </text>
      <text dy=".4em" transform="translate(-4,439)">
       1000
      </text>
      <text dy=".4em" transform="translate(-4,339)">
       1500
      </text>
      <text dy=".4em" transform="translate(-4,238)">
       2000
      </text>
      <text dy=".4em" transform="translate(-4,138)">
       2500
      </text>
      <text dy=".4em" transform="translate(-4,37)">
       3000
      </text>
     </g>
    </g>
   </g>
  </g>
  <g transform="translate(120,4)" font-family="Arial" font-size="40" space="preserve">
   <text fill="black" text-anchor="middle" dy=".8em" transform="translate(480)">
    projection
   </text>
  </g>
  <g transform="translate(936,52)" font-family="Arial" font-size="20" space="preserve" fill="black">
   <path d="M0,0H240V128H0Z" style="fill: white; stroke: black; stroke-width: 1;"></path>
   <text text-anchor="middle" dy=".4em" transform="translate(120,16)">
    hSignal
   </text>
   <text text-anchor="start" dy=".4em" transform="translate(12,48)">
    Entries
   </text>
   <text text-anchor="end" dy=".4em" transform="translate(228,48)">
    73245.49
   </text>
   <text text-anchor="start" dy=".4em" transform="translate(12,80)">
    Mean
   </text>
   <text text-anchor="end" dy=".4em" transform="translate(228,80)">
    1.095
   </text>
   <text text-anchor="start" dy=".4em" transform="translate(12,112)">
    Std Dev
   </text>
   <text text-anchor="end" dy=".4em" transform="translate(228,112)">
    0.05745
   </text>
   <path d="M0,32h240" style="stroke: black; stroke-width: 1;"></path>
  </g>
 </g>
</svg>
